src/assets/tokens/stbgt.svg

<svg xmlns="http://www.w3.org/2000/svg" fill="none" viewBox="0 0 1472 1472"><g filter="url(#a)"><path fill="#E50571" d="M109 736c0-346.283 280.717-627 627-627 346.28 0 627 280.717 627 627 0 346.28-280.72 627-627 627-346.283 0-627-280.72-627-627"/><path fill="#fff" d="M994.445 853.465q49.086 65.58 20.585 142.578c-19.009 51.327-56.715 84.997-113.132 101.007q-40.466 11.49-82.565.9-42.094-10.575-69.008-40.05-97.613 43.605-183.417-4.26c-57.206-31.92-91.58-83.783-103.125-155.599q-42.706-10.408-72.595-41.017-29.889-30.607-43.114-77.212-21.23-74.811 33.785-140.114 55.012-65.305 127.668-56.77l85.084 10.31q13.742-44.978 47.423-80.378 33.686-35.399 79.593-51.076l-18.096-63.773q-4.525-15.942 2.942-29.325 7.463-13.383 23.409-17.907 15.941-4.524 29.325 2.942 13.382 7.467 17.905 23.409l20.882 73.582q49.203.618 86.816 21.082 37.61 20.469 73.078 66.06l71.132-20.185c10.63-3.016 20.4-2.036 29.32 2.943 8.93 4.978 14.89 12.779 17.91 23.409 3.01 10.627 2.04 20.403-2.94 29.325s-12.78 14.889-23.41 17.905l-63.775 18.099q10.775 47.298-.43 94.209-11.204 46.908-42.261 82.224zM698.653 969.209q-9.398-33.114-12.752-65.953-3.358-32.84-.672-65.402c-16.25 14.327-34.69 26.406-55.311 36.235q-30.935 14.74-63.514 21.336 13.57 47.83 48.996 67.592 35.423 19.764 83.253 6.192M550.827 793.833q39.241-11.135 66.505-29.472 27.263-18.34 66.739-61.346L519.503 683.46q-39.74-4.624-60.532 17.838-20.79 22.464-11.395 55.578 9.048 31.885 34.073 40.685 25.024 8.802 69.178-3.728m323.23 205.109q30.66-8.7 43.579-35.559 12.919-26.856-3.505-47.372L800.577 768.016q-12.166 45.858-13.907 88.754-1.737 42.9 7.31 74.785 11.485 40.471 31.677 57.931 20.196 17.465 48.4 9.456m3.683-295.227q8.784-15.747 10.399-38.068 1.615-22.324-4.647-44.399-11.14-39.245-44.549-58.916t-71.428-8.885q-22.073 6.265-39.608 19.192-17.534 12.925-27.196 30.246l108.186 17.003z"/></g><defs><filter id="a" width="1471.97" height="1471.97" x=".017" y=".017" color-interpolation-filters="sRGB" filterUnits="userSpaceOnUse"><feFlood flood-opacity="0" result="BackgroundImageFix"/><feColorMatrix in="SourceAlpha" result="hardAlpha" values="0 0 0 0 0 0 0 0 0 0 0 0 0 0 0 0 0 0 127 0"/><feOffset/><feGaussianBlur stdDeviation="54.492"/><feComposite in2="hardAlpha" operator="out"/><feColorMatrix values="0 0 0 0 0.898039 0 0 0 0 0.0196078 0 0 0 0 0.443137 0 0 0 0.5 0"/><feBlend in2="BackgroundImageFix" result="effect1_dropShadow_10339_6180"/><feColorMatrix in="SourceAlpha" result="hardAlpha" values="0 0 0 0 0 0 0 0 0 0 0 0 0 0 0 0 0 0 127 0"/><feOffset/><feGaussianBlur stdDeviation="21.797"/><feComposite in2="hardAlpha" operator="out"/><feColorMatrix values="0 0 0 0 1 0 0 0 0 0.666455 0 0 0 0 0.827271 0 0 0 0.25 0"/><feBlend in2="effect1_dropShadow_10339_6180" result="effect2_dropShadow_10339_6180"/><feBlend in="SourceGraphic" in2="effect2_dropShadow_10339_6180" result="shape"/></filter></defs></svg>

<svg width="1472" height="1472" viewBox="0 0 1472 1472" fill="none" xmlns="http://www.w3.org/2000/svg">
<g filter="url(#filter0_dd_10339_6180)">
<path d="M109 736C109 389.717 389.717 109 736 109C1082.28 109 1363 389.717 1363 736C1363 1082.28 1082.28 1363 736 1363C389.717 1363 109 1082.28 109 736Z" fill="#E50571"/>
<path d="M994.445 853.465C1027.17 897.185 1034.03 944.71 1015.03 996.043C996.021 1047.37 958.315 1081.04 901.898 1097.05C874.92 1104.71 847.399 1105.01 819.333 1097.95C791.271 1090.9 768.267 1077.55 750.325 1057.9C685.25 1086.97 624.11 1085.55 566.908 1053.64C509.702 1021.72 475.328 969.857 463.783 898.041C435.313 891.103 411.114 877.43 391.188 857.024C371.262 836.619 356.891 810.882 348.074 779.812C333.921 729.938 345.183 683.233 381.859 639.698C418.534 596.162 461.09 577.237 509.527 582.928L594.611 593.238C603.772 563.253 619.58 536.46 642.034 512.86C664.492 489.26 691.021 472.236 721.627 461.784L703.531 398.011C700.515 387.383 701.494 377.608 706.473 368.686C711.448 359.764 719.252 353.795 729.882 350.779C740.509 347.763 750.285 348.744 759.207 353.721C768.129 358.699 774.096 366.502 777.112 377.13L797.994 450.712C830.795 451.124 859.736 458.151 884.81 471.794C909.884 485.439 934.242 507.461 957.888 537.854L1029.02 517.669C1039.65 514.653 1049.42 515.633 1058.34 520.612C1067.27 525.59 1073.23 533.391 1076.25 544.021C1079.26 554.648 1078.29 564.424 1073.31 573.346C1068.33 582.268 1060.53 588.235 1049.9 591.251L986.125 609.35C993.309 640.883 993.165 672.284 985.695 703.559C978.226 734.831 964.138 762.239 943.434 785.783L994.445 853.465ZM698.653 969.209C692.388 947.133 688.137 925.149 685.901 903.256C683.662 881.364 683.438 859.561 685.229 837.854C668.979 852.181 650.539 864.26 629.918 874.089C609.294 883.917 588.124 891.027 566.404 895.425C575.452 927.311 591.782 949.842 615.4 963.017C639.015 976.193 666.767 978.257 698.653 969.209ZM550.827 793.833C576.988 786.41 599.156 776.585 617.332 764.361C635.508 752.134 657.753 731.685 684.071 703.015L519.503 683.46C493.01 680.377 472.831 686.323 458.971 701.298C445.11 716.274 441.314 734.8 447.576 756.876C453.608 778.132 464.966 791.695 481.649 797.561C498.332 803.428 521.391 802.187 550.827 793.833ZM874.057 998.942C894.497 993.141 909.024 981.289 917.636 963.383C926.248 945.48 925.081 929.688 914.131 916.011L800.577 768.016C792.466 798.587 787.831 828.173 786.67 856.77C785.512 885.369 787.948 910.299 793.98 931.555C801.636 958.536 812.196 977.846 825.657 989.486C839.121 1001.13 855.255 1004.28 874.057 998.942ZM877.74 703.715C883.597 693.218 887.061 680.527 888.139 665.647C889.217 650.763 887.666 635.966 883.492 621.248C876.066 595.084 861.216 575.446 838.943 562.332C816.67 549.218 792.862 546.257 767.515 553.447C752.8 557.624 739.597 564.021 727.907 572.639C716.218 581.257 707.152 591.337 700.711 602.885L808.897 619.888L877.74 703.715Z" fill="white"/>
</g>
<defs>
<filter id="filter0_dd_10339_6180" x="0.01651" y="0.01651" width="1471.97" height="1471.97" filterUnits="userSpaceOnUse" color-interpolation-filters="sRGB">
<feFlood flood-opacity="0" result="BackgroundImageFix"/>
<feColorMatrix in="SourceAlpha" type="matrix" values="0 0 0 0 0 0 0 0 0 0 0 0 0 0 0 0 0 0 127 0" result="hardAlpha"/>
<feOffset/>
<feGaussianBlur stdDeviation="54.4917"/>
<feComposite in2="hardAlpha" operator="out"/>
<feColorMatrix type="matrix" values="0 0 0 0 0.898039 0 0 0 0 0.0196078 0 0 0 0 0.443137 0 0 0 0.5 0"/>
<feBlend mode="normal" in2="BackgroundImageFix" result="effect1_dropShadow_10339_6180"/>
<feColorMatrix in="SourceAlpha" type="matrix" values="0 0 0 0 0 0 0 0 0 0 0 0 0 0 0 0 0 0 127 0" result="hardAlpha"/>
<feOffset/>
<feGaussianBlur stdDeviation="21.7967"/>
<feComposite in2="hardAlpha" operator="out"/>
<feColorMatrix type="matrix" values="0 0 0 0 1 0 0 0 0 0.666455 0 0 0 0 0.827271 0 0 0 0.25 0"/>
<feBlend mode="normal" in2="effect1_dropShadow_10339_6180" result="effect2_dropShadow_10339_6180"/>
<feBlend mode="normal" in="SourceGraphic" in2="effect2_dropShadow_10339_6180" result="shape"/>
</filter>
</defs>
</svg>
